react/icons/LinkedInIcon/LinkedInIconFilled.svg

<svg xmlns="http://www.w3.org/2000/svg" width="1024" height="1024" viewBox="0 0 1024 1024"><path d="M527.03 1022.79c-58.416 0-115.102-11.446-168.484-34.022-51.547-21.8-97.835-52.998-137.578-92.732-39.744-39.734-70.952-86.017-92.755-137.557C105.63 705.1 94.18 648.414 94.18 590c0-58.416 11.45-115.102 34.032-168.48 21.804-51.54 53.01-97.82 92.755-137.557 39.744-39.734 86.03-70.934 137.578-92.73 53.383-22.574 110.068-34.02 168.485-34.02 58.4 0 115.077 11.445 168.45 34.02 51.54 21.798 97.82 52.998 137.56 92.73 39.74 39.736 70.945 86.018 92.748 137.557 22.58 53.38 34.03 110.064 34.03 168.48 0 58.414-11.45 115.1-34.03 168.478-21.803 51.54-53.008 97.82-92.747 137.557-39.737 39.733-86.02 70.935-137.56 92.732-53.37 22.577-110.047 34.022-168.45 34.022zm0-801.58c-98.52 0-191.145 38.36-260.81 108.014C196.55 398.878 158.18 491.49 158.18 590c0 98.51 38.37 191.122 108.038 260.776C335.885 920.43 428.51 958.79 527.03 958.79c98.492 0 191.1-38.36 260.757-108.013C857.453 781.12 895.82 688.507 895.82 590c0-98.508-38.367-191.12-108.033-260.778-69.658-69.652-162.263-108.01-260.756-108.01z"/><path d="M554.19 852.754V612.137h80.818l12.077-93.815H554.19v-59.847c0-27.106 7.514-45.624 46.466-45.624l49.688-.037v-83.848c-8.587-1.11-38.07-3.72-72.384-3.72-71.58 0-120.615 43.67-120.615 123.95v69.126h-80.972v93.816h80.972v240.616h96.845z"/><g><path d="M527.03 1022.79c-58.416 0-115.102-11.446-168.484-34.022-51.547-21.8-97.835-52.998-137.578-92.732-39.744-39.734-70.952-86.017-92.755-137.557C105.63 705.1 94.18 648.414 94.18 590c0-58.416 11.45-115.102 34.032-168.48 21.804-51.54 53.01-97.82 92.755-137.557 39.744-39.734 86.03-70.934 137.578-92.73 53.383-22.574 110.068-34.02 168.485-34.02 58.4 0 115.077 11.445 168.45 34.02 51.54 21.798 97.82 52.998 137.56 92.73 39.74 39.736 70.945 86.018 92.748 137.557 22.58 53.38 34.03 110.064 34.03 168.48 0 58.414-11.45 115.1-34.03 168.478-21.803 51.54-53.008 97.82-92.747 137.557-39.737 39.733-86.02 70.935-137.56 92.732-53.37 22.577-110.047 34.022-168.45 34.022z"/><g fill="#FFF"><path d="M373.87 335.966c28.614 0 51.88 23.305 51.88 51.88 0 28.654-23.266 51.845-51.88 51.845-28.75 0-51.902-23.19-51.902-51.843 0-28.577 23.152-51.88 51.9-51.88M329.074 479.08h89.552v287.795h-89.552V479.08zM474.747 479.08h85.75v39.35h1.26c11.92-22.654 41.11-46.533 84.625-46.533 90.506 0 107.24 59.6 107.24 137.117v157.86h-89.398V626.932c0-33.352-.61-76.332-46.457-76.332-46.57 0-53.64 36.37-53.64 73.926v142.35h-89.38V479.08z"/></g></g></svg>

<?xml version="1.0" encoding="UTF-8" standalone="no"?>
<!DOCTYPE svg PUBLIC "-//W3C//DTD SVG 1.1//EN" "http://www.w3.org/Graphics/SVG/1.1/DTD/svg11.dtd">
<svg width="100%" height="100%" viewBox="0 0 1024 1024" version="1.1" xmlns="http://www.w3.org/2000/svg" xmlns:xlink="http://www.w3.org/1999/xlink" xml:space="preserve" style="fill-rule:evenodd;clip-rule:evenodd;stroke-linejoin:round;stroke-miterlimit:1.41421;">
    <g transform="matrix(1.17906,0,0,1.17906,-109.864,-183.139)">
        <path d="M527.03,1022.79C468.614,1022.79 411.928,1011.34 358.546,988.768C306.999,966.968 260.711,935.77 220.968,896.036C181.224,856.302 150.016,810.019 128.213,758.479C105.63,705.1 94.18,648.414 94.18,590C94.18,531.584 105.63,474.898 128.212,421.52C150.016,369.98 181.222,323.7 220.967,283.963C260.711,244.229 306.997,213.029 358.545,191.233C411.928,168.659 468.613,157.213 527.03,157.213C585.43,157.213 642.107,168.658 695.48,191.233C747.02,213.031 793.3,244.231 833.04,283.963C872.78,323.699 903.985,369.981 925.788,421.52C948.368,474.9 959.818,531.584 959.818,590C959.818,648.414 948.368,705.1 925.788,758.478C903.985,810.018 872.78,856.298 833.041,896.035C793.304,935.768 747.021,966.97 695.481,988.767C642.111,1011.34 585.434,1022.79 527.031,1022.79L527.03,1022.79ZM527.03,221.21C428.51,221.21 335.885,259.57 266.22,329.224C196.55,398.878 158.18,491.49 158.18,590C158.18,688.51 196.55,781.122 266.218,850.776C335.885,920.43 428.51,958.79 527.03,958.79C625.522,958.79 718.13,920.43 787.787,850.777C857.453,781.12 895.82,688.507 895.82,590C895.82,491.492 857.453,398.88 787.787,329.222C718.129,259.57 625.524,221.212 527.031,221.212L527.03,221.21Z" style="fill-rule:nonzero;"/>
    </g>
    <g transform="matrix(1.17906,0,0,1.17906,-109.864,-183.139)">
        <path d="M554.19,852.754L554.19,612.137L635.008,612.137L647.085,518.322L554.19,518.322L554.19,458.475C554.19,431.369 561.704,412.851 600.656,412.851L650.344,412.814L650.344,328.966C641.757,327.856 612.274,325.246 577.96,325.246C506.38,325.246 457.345,368.916 457.345,449.196L457.345,518.322L376.373,518.322L376.373,612.138L457.345,612.138L457.345,852.754L554.19,852.754Z" style="fill-rule:nonzero;"/>
    </g>
    <g>
        <g transform="matrix(1.17906,0,0,1.17906,-109.864,-183.139)">
            <path d="M527.03,1022.79C468.614,1022.79 411.928,1011.34 358.546,988.768C306.999,966.968 260.711,935.77 220.968,896.036C181.224,856.302 150.016,810.019 128.213,758.479C105.63,705.1 94.18,648.414 94.18,590C94.18,531.584 105.63,474.898 128.212,421.52C150.016,369.98 181.222,323.7 220.967,283.963C260.711,244.229 306.997,213.029 358.545,191.233C411.928,168.659 468.613,157.213 527.03,157.213C585.43,157.213 642.107,168.658 695.48,191.233C747.02,213.031 793.3,244.231 833.04,283.963C872.78,323.699 903.985,369.981 925.788,421.52C948.368,474.9 959.818,531.584 959.818,590C959.818,648.414 948.368,705.1 925.788,758.478C903.985,810.018 872.78,856.298 833.041,896.035C793.304,935.768 747.021,966.97 695.481,988.767C642.111,1011.34 585.434,1022.79 527.031,1022.79L527.03,1022.79Z" style="fill-rule:nonzero;"/>
        </g>
        <g transform="matrix(1.17906,0,0,1.17906,-109.864,-183.139)">
            <path d="M373.87,335.966C402.484,335.966 425.75,359.271 425.75,387.846C425.75,416.5 402.484,439.691 373.87,439.691C345.12,439.691 321.968,416.501 321.968,387.848C321.968,359.271 345.12,335.968 373.868,335.968M329.074,479.08L418.626,479.08L418.626,766.875L329.074,766.875L329.074,479.08ZM474.747,479.08L560.497,479.08L560.497,518.43L561.757,518.43C573.677,495.776 602.867,471.897 646.382,471.897C736.888,471.897 753.622,531.497 753.622,609.014L753.622,766.874L664.224,766.874L664.224,626.932C664.224,593.58 663.614,550.6 617.767,550.6C571.197,550.6 564.127,586.97 564.127,624.526L564.127,766.876L474.747,766.876L474.747,479.08L474.747,479.08Z" style="fill:white;fill-rule:nonzero;"/>
        </g>
    </g>
</svg>
